icon/lg/influxdb-icon.svg

<?xml version="1.0" encoding="UTF-8"?>
<svg viewBox="0 0 256 261" version="1.1" xmlns="http://www.w3.org/2000/svg" preserveAspectRatio="xMidYMid" height="1em" width="1em">
  <g>
    <path d="M57.7997056,153.553318 L58.2660525,153.670235 L167.849876,187.210982 C168.767691,187.474037 169.624517,187.915453 170.371335,188.510146 C171.117923,189.104838 171.740002,189.841069 172.201671,190.676722 C172.663571,191.512146 172.955624,192.430651 173.06172,193.379075 C173.146597,194.137998 173.110842,194.904434 172.957047,195.649983 L172.819608,196.204785 L154.456407,254.988201 C153.810393,256.778723 152.548512,258.283865 150.896078,259.229758 C149.393864,260.08966 147.657892,260.439822 145.948048,260.233556 L145.436138,260.154937 L35.8520845,226.292219 C34.021518,225.73481 32.4853058,224.477072 31.5776173,222.792417 C30.7526552,221.261121 30.5079986,219.489982 30.8773653,217.801822 L31.0066297,217.298186 L49.245783,158.639277 C49.7882328,156.787998 51.0413676,155.22624 52.7313161,154.295306 C54.2804355,153.441951 56.0813421,153.182094 57.7997056,153.553318 Z M242.794986,180.39442 L242.546609,180.652104 L169.365375,248.403777 C166.67202,251.096464 165.28201,250.206948 166.140849,246.70097 L166.234264,246.341686 L181.49167,197.248488 C182.176579,195.218847 183.362051,193.394495 184.938539,191.944126 C186.340065,190.65491 188.010173,189.698101 189.824724,189.140457 L190.511709,188.950181 L240.806719,177.521453 C244.371077,176.240485 245.20472,177.667172 243.0232,180.143364 L242.794986,180.39442 Z M3.36410268,103.963703 L3.59775129,104.228829 L38.6347573,142.042893 C40.0100987,143.702922 40.9760136,145.6626 41.4551737,147.764046 C41.8808892,149.632203 41.9114615,151.566004 41.5478602,153.441798 L41.3930348,154.142261 L26.1358591,203.235918 C25.1990267,206.9105 23.4959465,207.032986 22.7548983,203.603377 L22.6817408,203.235918 L0.466769127,105.968029 C-0.615363429,102.28936 1.0485614,101.426018 3.36410268,103.963703 Z M226.784497,41.4047722 C228.274757,42.2971561 229.384822,43.6977558 229.916328,45.3401351 L230.04679,45.7938511 L255.715457,157.124008 C255.987027,158.033538 256.065276,158.989096 255.945601,159.930386 C255.825926,160.871675 255.51293,161.777983 255.025024,162.591312 C254.537119,163.404642 253.883509,164.107272 253.107924,164.654785 C252.487455,165.092611 251.800705,165.423208 251.074775,165.634322 L250.523405,165.770063 L190.164191,179.608861 C188.32557,180.067538 186.380161,179.778707 184.754423,178.805197 C183.264163,177.912813 182.154098,176.512214 181.622415,174.869834 L181.4919,174.416118 L155.89757,63.0859613 C155.437512,61.2574661 155.720589,59.3214936 156.684433,57.7012788 C157.567956,56.216082 158.957955,55.1070189 160.590297,54.5715681 L161.041292,54.4399062 L221.374499,40.6011088 C223.21312,40.1424316 225.158759,40.4312625 226.784497,41.4047722 Z M148.108286,67.4355501 L148.219501,67.8064478 L172.496946,172.900619 C173.482928,176.72361 171.25743,178.778132 167.644507,177.960989 L167.278658,177.869661 L63.9319711,146.068114 C60.2610927,145.060622 59.4859388,142.130586 61.9418814,139.447669 L62.2173973,139.161258 L141.286639,65.7195007 C143.952974,63.0536107 146.967701,63.9398157 148.108286,67.4355501 Z M91.2551439,0.00214395452 C92.1962033,0.0252576298 93.1229937,0.234995581 93.9821218,0.619186703 C94.6694243,0.926537759 95.3025232,1.34064035 95.8582053,1.84511793 L96.2600885,2.24016554 L138.155298,47.6071568 C139.421321,48.9739828 140.095183,50.7859077 140.030052,52.6477738 C139.970138,54.3542734 139.293906,55.975877 138.135371,57.2163671 L137.80755,57.5450109 L53.8926234,135.359507 C52.507616,136.638878 50.6735973,137.319875 48.7891771,137.254744 C47.0617919,137.195041 45.4198828,136.512831 44.161972,135.34284 L43.8286502,135.011759 L1.85881208,89.6199698 C0.605069645,88.24716 -0.0606818906,86.4377667 0.00435346059,84.5800432 C0.0639692836,82.876919 0.733297539,81.2575306 1.88171353,80.0120681 L2.20669796,79.6818855 L86.1464042,1.99171573 C86.8239486,1.33838484 87.6241598,0.826081683 88.5012391,0.484543174 C89.3783184,0.143002825 90.3143146,-0.0209697898 91.2551439,0.00214395452 Z M112.486626,1.90139358 L112.833919,1.99210928 L208.552248,31.2844137 C212.251524,32.2690777 212.374833,33.927085 209.034435,34.9790905 L208.676526,35.0857045 L158.382206,46.4893467 C156.274546,46.9215574 154.09393,46.8426179 152.023093,46.2589724 C150.182349,45.7403809 148.475805,44.8364657 147.015475,43.6102653 L146.479611,43.1354561 L111.442467,5.4455556 C108.433505,2.43699487 108.992398,1.0372537 112.486626,1.90139358 Z" fill="#020A47"/>
  </g>
</svg>

<svg width="256" height="261" xmlns="http://www.w3.org/2000/svg" preserveAspectRatio="xMidYMid"><path d="m57.8 153.553.466.117 109.584 33.541a7.257 7.257 0 0 1 5.107 8.439l-.137.555-18.364 58.783a8.027 8.027 0 0 1-8.508 5.246l-.512-.08-109.584-33.862a7.256 7.256 0 0 1-4.975-8.49l.13-.504 18.239-58.659a7.305 7.305 0 0 1 8.554-5.086Zm184.995 26.841-.248.258-73.182 67.752c-2.693 2.692-4.083 1.803-3.224-1.703l.093-.36 15.258-49.093a12.745 12.745 0 0 1 8.333-8.108l.687-.19 50.295-11.429c3.564-1.28 4.398.146 2.216 2.622l-.228.251Zm-239.43-76.43.233.265 35.037 37.814a13.763 13.763 0 0 1 2.913 11.399l-.155.7-15.257 49.094c-.937 3.675-2.64 3.797-3.381.367l-.073-.367L.467 105.968c-1.082-3.679.582-4.542 2.897-2.004Zm223.42-62.56a7.155 7.155 0 0 1 3.131 3.936l.13.454 25.67 111.33c.271.91.35 1.865.23 2.806a6.825 6.825 0 0 1-4.87 5.704l-.553.136-60.359 13.839a7.158 7.158 0 0 1-8.542-4.74l-.13-.453-25.594-111.33a7.13 7.13 0 0 1 4.692-8.514l.451-.132L221.374 40.6a7.158 7.158 0 0 1 5.41.804Zm-78.677 26.032.112.37 24.277 105.095c.986 3.823-1.24 5.877-4.852 5.06l-.366-.091-103.347-31.802c-3.67-1.007-4.446-3.937-1.99-6.62l.275-.287 79.07-73.441c2.666-2.666 5.68-1.78 6.821 1.716ZM91.255.002a7.107 7.107 0 0 1 4.603 1.843l.402.395 41.895 45.367a7.055 7.055 0 0 1-.02 9.61l-.327.328-83.915 77.815a7.157 7.157 0 0 1-9.731-.017l-.333-.331L1.859 89.62a7.105 7.105 0 0 1 .023-9.608l.325-.33 83.94-77.69a7.108 7.108 0 0 1 5.108-1.99Zm21.232 1.9.347.09 95.718 29.292c3.7.985 3.823 2.643.482 3.695l-.357.107-50.295 11.403a13.468 13.468 0 0 1-11.367-2.879l-.535-.475-35.038-37.69c-3.008-3.008-2.45-4.408 1.045-3.544Z" fill="#020A47"/></svg>
